exported-svg/package.svg

<svg height="24" viewBox="0 0 24 24" width="24" xmlns="http://www.w3.org/2000/svg"><path d="m16.2288114 8.94461128c-.0032239.00165587-.0064648.00327628-.009722.00486102l-4.7190894 2.3595447v10.8748512c.0564881-.0201988.1120585-.0438927.1663932-.0710818l8.0011069-4.0005517c.5097432-.2532975.8321979-.773292.8325-1.3422347v-9.52973468c-.0000735-.13845566-.0192078-.2739995-.0554778-.40350947l-4.2157092 2.1078546zm-9.1057781-5.44211162 8.8769667 4.43848335 3.8590057-1.92950288c-.0606978-.04241504-.1250053-.08067149-.1926125-.11426653l-8-4c-.4193677-.20838718-.9134187-.20838718-1.3327864 0zm-1.11803423.55901687-3.67249914 1.83624879c-.06723712.03341092-.13121594.07146221-.19162715.11365408l8.85912722 4.4295636 3.881966-1.940983zm-.2868928-.97458585c.03724807-.02536976.07764885-.04550184.11997302-.05998647l4.04942071-2.02470949c.7007908-.34823144 1.5242092-.34823144 2.225 0l7.9999999 3.99999996c.8495721.42216251 1.3869966 1.28882003 1.3875001 2.23776532v9.5302653c-.0005035.94868-.537928 1.8153375-1.3863932 2.2369483l-7.9998568 3.9999284c-.7042099.3523869-1.5332901.3523869-2.2373568.0000716l-8.00138109-4.0006932c-.84874245-.4276552-1.38160219-1.2995797-1.37517883-2.2465204v-9.5202974c.00068239-.94867591.53811176-1.81531389 1.38655992-2.2369162l3.831713-1.91585567zm4.78189373 19.10048702v-10.8784007l-8.94461616-4.47230808c-.03626155.1294474-.05541299.26492201-.05551549.40329108v9.5234476c-.00386109.5702612.31586645 1.093435.82373845 1.3493388l8.0001432 4.0000716c.0574887.0287674.1163644.0536207.17625.0745597z"/></svg>

<?xml version="1.0" encoding="UTF-8"?>
<svg width="24px" height="24px" viewBox="0 0 24 24" version="1.1" xmlns="http://www.w3.org/2000/svg" xmlns:xlink="http://www.w3.org/1999/xlink">
    <!-- Generator: Sketch 55.2 (78181) - https://sketchapp.com -->
    <title>package</title>
    <desc>Created with Sketch.</desc>
    <g id="package" stroke="none" stroke-width="1" fill="none" fill-rule="evenodd">
        <path d="M16.2288114,8.94461128 C16.2255875,8.94626715 16.2223466,8.94788756 16.2190894,8.9494723 L11.5,11.309017 L11.5,22.1838682 C11.5564881,22.1636694 11.6120585,22.1399755 11.6663932,22.1127864 L19.6675001,18.1122347 C20.1772433,17.8589372 20.499698,17.3389427 20.5000001,16.77 L20.5000001,7.24026532 C20.4999266,7.10180966 20.4807923,6.96626582 20.4445223,6.83675585 L16.2288131,8.94461045 Z M7.1230333,3.50249966 L16,7.94098301 L19.8590057,6.01148013 C19.7983079,5.96906509 19.7340004,5.93080864 19.6663932,5.8972136 L11.6663932,1.8972136 C11.2470255,1.68882642 10.7529745,1.68882642 10.3336068,1.8972136 L7.1230333,3.50249966 Z M6.00499907,4.06151653 L2.33249993,5.89776532 C2.26526281,5.93117624 2.20128399,5.96922753 2.14087278,6.0114194 L11,10.440983 L14.881966,8.5 L6.00499907,4.06151653 Z M5.71810627,3.08693068 C5.75535434,3.06156092 5.79575512,3.04142884 5.83807929,3.02694421 L9.8875,1.00223472 C10.5882908,0.654003279 11.4117092,0.654003279 12.1125,1.00223472 L20.1124999,5.00223468 C20.962072,5.42439719 21.4994965,6.29105471 21.5,7.24 L21.5,16.7702653 C21.4994965,17.7189453 20.962072,18.5856028 20.1136068,19.0072136 L12.11375,23.007142 C11.4095401,23.3595289 10.5804599,23.3595289 9.8763932,23.0072136 L1.87501211,19.0065204 C1.02626966,18.5788652 0.493409917,17.7069407 0.499833284,16.76 L0.499833284,7.2397026 C0.500515667,6.29102669 1.03794504,5.42438871 1.8863932,5.0027864 L5.7181062,3.08693073 Z M10.5,22.1874177 L10.5,11.309017 L1.55538384,6.83670892 C1.51912229,6.96615632 1.49997085,7.10163093 1.49986835,7.24 L1.49986835,16.7634476 C1.49600726,17.3337088 1.8157348,17.8568826 2.3236068,18.1127864 L10.32375,22.112858 C10.3812387,22.1416254 10.4401144,22.1664787 10.5,22.1874177 Z" id="Combined-Shape" fill="#000000" fill-rule="nonzero"></path>
    </g>
</svg>
